game/materials/generated_lut.cube
TITLE "Exported LUT"
LUT_3D_SIZE 5
DOMAIN_MIN 0.0 0.0 0.0
DOMAIN_MAX 1.0 1.0 1.0
0.000000 0.000000 0.000000
0.249261 0.000000 0.000000
0.497957 0.000000 0.000000
0.748948 0.000000 0.000000
1.000000 0.000000 0.000000
0.000000 0.249261 0.000000
0.249261 0.249261 0.000000
0.497957 0.249261 0.000000
0.748948 0.249261 0.000000
1.000000 0.249261 0.000000
0.000000 0.497957 0.000000
0.249261 0.497957 0.000000
0.497957 0.497957 0.000000
0.748948 0.497957 0.000000
1.000000 0.497957 0.000000
0.000000 0.748948 0.000000
0.249261 0.748948 0.000000
0.497957 0.748948 0.000000
0.748948 0.748948 0.000000
1.000000 0.748948 0.000000
0.000000 1.000000 0.000000
0.249261 1.000000 0.000000
0.497957 1.000000 0.000000
0.748948 1.000000 0.000000
1.000000 1.000000 0.000000
0.000000 0.000000 0.249261
0.249261 0.000000 0.249261
0.497957 0.000000 0.249261
0.748948 0.000000 0.249261
1.000000 0.000000 0.249261
0.000000 0.249261 0.249261
0.249261 0.249261 0.249261
0.497957 0.249261 0.249261
0.748948 0.249261 0.249261
1.000000 0.249261 0.249261
0.000000 0.497957 0.249261
0.249261 0.497957 0.249261
0.497957 0.497957 0.249261
0.748948 0.497957 0.249261
1.000000 0.497957 0.249261
0.000000 0.748948 0.249261
0.249261 0.748948 0.249261
0.497957 0.748948 0.249261
0.748948 0.748948 0.249261
1.000000 0.748948 0.249261
0.000000 1.000000 0.249261
0.249261 1.000000 0.249261
0.497957 1.000000 0.249261
0.748948 1.000000 0.249261
1.000000 1.000000 0.249261
0.000000 0.000000 0.497957
0.249261 0.000000 0.497957
0.497957 0.000000 0.497957
0.748948 0.000000 0.497957
1.000000 0.000000 0.497957
0.000000 0.249261 0.497957
0.249261 0.249261 0.497957
0.497957 0.249261 0.497957
0.748948 0.249261 0.497957
1.000000 0.249261 0.497957
0.000000 0.497957 0.497957
0.249261 0.497957 0.497957
0.497957 0.497957 0.497957
0.748948 0.497957 0.497957
1.000000 0.497957 0.497957
0.000000 0.748948 0.497957
0.249261 0.748948 0.497957
0.497957 0.748948 0.497957
0.748948 0.748948 0.497957
1.000000 0.748948 0.497957
0.000000 1.000000 0.497957
0.249261 1.000000 0.497957
0.497957 1.000000 0.497957
0.748948 1.000000 0.497957
1.000000 1.000000 0.497957
0.000000 0.000000 0.748948
0.249261 0.000000 0.748948
0.497957 0.000000 0.748948
0.748948 0.000000 0.748948
1.000000 0.000000 0.748948
0.000000 0.249261 0.748948
0.249261 0.249261 0.748948
0.497957 0.249261 0.748948
0.748948 0.249261 0.748948
1.000000 0.249261 0.748948
0.000000 0.497957 0.748948
0.249261 0.497957 0.748948
0.497957 0.497957 0.748948
0.748948 0.497957 0.748948
1.000000 0.497957 0.748948
0.000000 0.748948 0.748948
0.249261 0.748948 0.748948
0.497957 0.748948 0.748948
0.748948 0.748948 0.748948
1.000000 0.748948 0.748948
0.000000 1.000000 0.748948
0.249261 1.000000 0.748948
0.497957 1.000000 0.748948
0.748948 1.000000 0.748948
1.000000 1.000000 0.748948
0.000000 0.000000 1.000000
0.249261 0.000000 1.000000
0.497957 0.000000 1.000000
0.748948 0.000000 1.000000
1.000000 0.000000 1.000000
0.000000 0.249261 1.000000
0.249261 0.249261 1.000000
0.497957 0.249261 1.000000
0.748948 0.249261 1.000000
1.000000 0.249261 1.000000
0.000000 0.497957 1.000000
0.249261 0.497957 1.000000
0.497957 0.497957 1.000000
0.748948 0.497957 1.000000
1.000000 0.497957 1.000000
0.000000 0.748948 1.000000
0.249261 0.748948 1.000000
0.497957 0.748948 1.000000
0.748948 0.748948 1.000000
1.000000 0.748948 1.000000
0.000000 1.000000 1.000000
0.249261 1.000000 1.000000
0.497957 1.000000 1.000000
0.748948 1.000000 1.000000
1.000000 1.000000 1.000000
