game/materials/generated_lut.cube
TITLE "Exported LUT"
LUT_3D_SIZE 9
DOMAIN_MIN 0.0 0.0 0.0
DOMAIN_MAX 1.0 1.0 1.0
0.000000 0.000000 0.000000
0.110395 0.000000 0.000000
0.249261 0.000000 0.000000
0.372258 0.000000 0.000000
0.497957 0.000000 0.000000
0.626025 0.000000 0.000000
0.748948 0.000000 0.000000
0.874813 0.000000 0.000000
1.000000 0.000000 0.000000
0.000000 0.110395 0.000000
0.110395 0.110395 0.000000
0.249261 0.110395 0.000000
0.372258 0.110395 0.000000
0.497957 0.110395 0.000000
0.626025 0.110395 0.000000
0.748948 0.110395 0.000000
0.874813 0.110395 0.000000
1.000000 0.110395 0.000000
0.000000 0.249261 0.000000
0.110395 0.249261 0.000000
0.249261 0.249261 0.000000
0.372258 0.249261 0.000000
0.497957 0.249261 0.000000
0.626025 0.249261 0.000000
0.748948 0.249261 0.000000
0.874813 0.249261 0.000000
1.000000 0.249261 0.000000
0.000000 0.372258 0.000000
0.110395 0.372258 0.000000
0.249261 0.372258 0.000000
0.372258 0.372258 0.000000
0.497957 0.372258 0.000000
0.626025 0.372258 0.000000
0.748948 0.372258 0.000000
0.874813 0.372258 0.000000
1.000000 0.372258 0.000000
0.000000 0.497957 0.000000
0.110395 0.497957 0.000000
0.249261 0.497957 0.000000
0.372258 0.497957 0.000000
0.497957 0.497957 0.000000
0.626025 0.497957 0.000000
0.748948 0.497957 0.000000
0.874813 0.497957 0.000000
1.000000 0.497957 0.000000
0.000000 0.626025 0.000000
0.110395 0.626025 0.000000
0.249261 0.626025 0.000000
0.372258 0.626025 0.000000
0.497957 0.626025 0.000000
0.626025 0.626025 0.000000
0.748948 0.626025 0.000000
0.874813 0.626025 0.000000
1.000000 0.626025 0.000000
0.000000 0.748948 0.000000
0.110395 0.748948 0.000000
0.249261 0.748948 0.000000
0.372258 0.748948 0.000000
0.497957 0.748948 0.000000
0.626025 0.748948 0.000000
0.748948 0.748948 0.000000
0.874813 0.748948 0.000000
1.000000 0.748948 0.000000
0.000000 0.874813 0.000000
0.110395 0.874813 0.000000
0.249261 0.874813 0.000000
0.372258 0.874813 0.000000
0.497957 0.874813 0.000000
0.626025 0.874813 0.000000
0.748948 0.874813 0.000000
0.874813 0.874813 0.000000
1.000000 0.874813 0.000000
0.000000 1.000000 0.000000
0.110395 1.000000 0.000000
0.249261 1.000000 0.000000
0.372258 1.000000 0.000000
0.497957 1.000000 0.000000
0.626025 1.000000 0.000000
0.748948 1.000000 0.000000
0.874813 1.000000 0.000000
1.000000 1.000000 0.000000
0.000000 0.000000 0.110395
0.110395 0.000000 0.110395
0.249261 0.000000 0.110395
0.372258 0.000000 0.110395
0.497957 0.000000 0.110395
0.626025 0.000000 0.110395
0.748948 0.000000 0.110395
0.874813 0.000000 0.110395
1.000000 0.000000 0.110395
0.000000 0.110395 0.110395
0.110395 0.110395 0.110395
0.249261 0.110395 0.110395
0.372258 0.110395 0.110395
0.497957 0.110395 0.110395
0.626025 0.110395 0.110395
0.748948 0.110395 0.110395
0.874813 0.110395 0.110395
1.000000 0.110395 0.110395
0.000000 0.249261 0.110395
0.110395 0.249261 0.110395
0.249261 0.249261 0.110395
0.372258 0.249261 0.110395
0.497957 0.249261 0.110395
0.626025 0.249261 0.110395
0.748948 0.249261 0.110395
0.874813 0.249261 0.110395
1.000000 0.249261 0.110395
0.000000 0.372258 0.110395
0.110395 0.372258 0.110395
0.249261 0.372258 0.110395
0.372258 0.372258 0.110395
0.497957 0.372258 0.110395
0.626025 0.372258 0.110395
0.748948 0.372258 0.110395
0.874813 0.372258 0.110395
1.000000 0.372258 0.110395
0.000000 0.497957 0.110395
0.110395 0.497957 0.110395
0.249261 0.497957 0.110395
0.372258 0.497957 0.110395
0.497957 0.497957 0.110395
0.626025 0.497957 0.110395
0.748948 0.497957 0.110395
0.874813 0.497957 0.110395
1.000000 0.497957 0.110395
0.000000 0.626025 0.110395
0.110395 0.626025 0.110395
0.249261 0.626025 0.110395
0.372258 0.626025 0.110395
0.497957 0.626025 0.110395
0.626025 0.626025 0.110395
0.748948 0.626025 0.110395
0.874813 0.626025 0.110395
1.000000 0.626025 0.110395
0.000000 0.748948 0.110395
0.110395 0.748948 0.110395
0.249261 0.748948 0.110395
0.372258 0.748948 0.110395
0.497957 0.748948 0.110395
0.626025 0.748948 0.110395
0.748948 0.748948 0.110395
0.874813 0.748948 0.110395
1.000000 0.748948 0.110395
0.000000 0.874813 0.110395
0.110395 0.874813 0.110395
0.249261 0.874813 0.110395
0.372258 0.874813 0.110395
0.497957 0.874813 0.110395
0.626025 0.874813 0.110395
0.748948 0.874813 0.110395
0.874813 0.874813 0.110395
1.000000 0.874813 0.110395
0.000000 1.000000 0.110395
0.110395 1.000000 0.110395
0.249261 1.000000 0.110395
0.372258 1.000000 0.110395
0.497957 1.000000 0.110395
0.626025 1.000000 0.110395
0.748948 1.000000 0.110395
0.874813 1.000000 0.110395
1.000000 1.000000 0.110395
0.000000 0.000000 0.249261
0.110395 0.000000 0.249261
0.249261 0.000000 0.249261
0.372258 0.000000 0.249261
0.497957 0.000000 0.249261
0.626025 0.000000 0.249261
0.748948 0.000000 0.249261
0.874813 0.000000 0.249261
1.000000 0.000000 0.249261
0.000000 0.110395 0.249261
0.110395 0.110395 0.249261
0.249261 0.110395 0.249261
0.372258 0.110395 0.249261
0.497957 0.110395 0.249261
0.626025 0.110395 0.249261
0.748948 0.110395 0.249261
0.874813 0.110395 0.249261
1.000000 0.110395 0.249261
0.000000 0.249261 0.249261
0.110395 0.249261 0.249261
0.249261 0.249261 0.249261
0.372258 0.249261 0.249261
0.497957 0.249261 0.249261
0.626025 0.249261 0.249261
0.748948 0.249261 0.249261
0.874813 0.249261 0.249261
1.000000 0.249261 0.249261
0.000000 0.372258 0.249261
0.110395 0.372258 0.249261
0.249261 0.372258 0.249261
0.372258 0.372258 0.249261
0.497957 0.372258 0.249261
0.626025 0.372258 0.249261
0.748948 0.372258 0.249261
0.874813 0.372258 0.249261
1.000000 0.372258 0.249261
0.000000 0.497957 0.249261
0.110395 0.497957 0.249261
0.249261 0.497957 0.249261
0.372258 0.497957 0.249261
0.497957 0.497957 0.249261
0.626025 0.497957 0.249261
0.748948 0.497957 0.249261
0.874813 0.497957 0.249261
1.000000 0.497957 0.249261
0.000000 0.626025 0.249261
0.110395 0.626025 0.249261
0.249261 0.626025 0.249261
0.372258 0.626025 0.249261
0.497957 0.626025 0.249261
0.626025 0.626025 0.249261
0.748948 0.626025 0.249261
0.874813 0.626025 0.249261
1.000000 0.626025 0.249261
0.000000 0.748948 0.249261
0.110395 0.748948 0.249261
0.249261 0.748948 0.249261
0.372258 0.748948 0.249261
0.497957 0.748948 0.249261
0.626025 0.748948 0.249261
0.748948 0.748948 0.249261
0.874813 0.748948 0.249261
1.000000 0.748948 0.249261
0.000000 0.874813 0.249261
0.110395 0.874813 0.249261
0.249261 0.874813 0.249261
0.372258 0.874813 0.249261
0.497957 0.874813 0.249261
0.626025 0.874813 0.249261
0.748948 0.874813 0.249261
0.874813 0.874813 0.249261
1.000000 0.874813 0.249261
0.000000 1.000000 0.249261
0.110395 1.000000 0.249261
0.249261 1.000000 0.249261
0.372258 1.000000 0.249261
0.497957 1.000000 0.249261
0.626025 1.000000 0.249261
0.748948 1.000000 0.249261
0.874813 1.000000 0.249261
1.000000 1.000000 0.249261
0.000000 0.000000 0.372258
0.110395 0.000000 0.372258
0.249261 0.000000 0.372258
0.372258 0.000000 0.372258
0.497957 0.000000 0.372258
0.626025 0.000000 0.372258
0.748948 0.000000 0.372258
0.874813 0.000000 0.372258
1.000000 0.000000 0.372258
0.000000 0.110395 0.372258
0.110395 0.110395 0.372258
0.249261 0.110395 0.372258
0.372258 0.110395 0.372258
0.497957 0.110395 0.372258
0.626025 0.110395 0.372258
0.748948 0.110395 0.372258
0.874813 0.110395 0.372258
1.000000 0.110395 0.372258
0.000000 0.249261 0.372258
0.110395 0.249261 0.372258
0.249261 0.249261 0.372258
0.372258 0.249261 0.372258
0.497957 0.249261 0.372258
0.626025 0.249261 0.372258
0.748948 0.249261 0.372258
0.874813 0.249261 0.372258
1.000000 0.249261 0.372258
0.000000 0.372258 0.372258
0.110395 0.372258 0.372258
0.249261 0.372258 0.372258
0.372258 0.372258 0.372258
0.497957 0.372258 0.372258
0.626025 0.372258 0.372258
0.748948 0.372258 0.372258
0.874813 0.372258 0.372258
1.000000 0.372258 0.372258
0.000000 0.497957 0.372258
0.110395 0.497957 0.372258
0.249261 0.497957 0.372258
0.372258 0.497957 0.372258
0.497957 0.497957 0.372258
0.626025 0.497957 0.372258
0.748948 0.497957 0.372258
0.874813 0.497957 0.372258
1.000000 0.497957 0.372258
0.000000 0.626025 0.372258
0.110395 0.626025 0.372258
0.249261 0.626025 0.372258
0.372258 0.626025 0.372258
0.497957 0.626025 0.372258
0.626025 0.626025 0.372258
0.748948 0.626025 0.372258
0.874813 0.626025 0.372258
1.000000 0.626025 0.372258
0.000000 0.748948 0.372258
0.110395 0.748948 0.372258
0.249261 0.748948 0.372258
0.372258 0.748948 0.372258
0.497957 0.748948 0.372258
0.626025 0.748948 0.372258
0.748948 0.748948 0.372258
0.874813 0.748948 0.372258
1.000000 0.748948 0.372258
0.000000 0.874813 0.372258
0.110395 0.874813 0.372258
0.249261 0.874813 0.372258
0.372258 0.874813 0.372258
0.497957 0.874813 0.372258
0.626025 0.874813 0.372258
0.748948 0.874813 0.372258
0.874813 0.874813 0.372258
1.000000 0.874813 0.372258
0.000000 1.000000 0.372258
0.110395 1.000000 0.372258
0.249261 1.000000 0.372258
0.372258 1.000000 0.372258
0.497957 1.000000 0.372258
0.626025 1.000000 0.372258
0.748948 1.000000 0.372258
0.874813 1.000000 0.372258
1.000000 1.000000 0.372258
0.000000 0.000000 0.497957
0.110395 0.000000 0.497957
0.249261 0.000000 0.497957
0.372258 0.000000 0.497957
0.497957 0.000000 0.497957
0.626025 0.000000 0.497957
0.748948 0.000000 0.497957
0.874813 0.000000 0.497957
1.000000 0.000000 0.497957
0.000000 0.110395 0.497957
0.110395 0.110395 0.497957
0.249261 0.110395 0.497957
0.372258 0.110395 0.497957
0.497957 0.110395 0.497957
0.626025 0.110395 0.497957
0.748948 0.110395 0.497957
0.874813 0.110395 0.497957
1.000000 0.110395 0.497957
0.000000 0.249261 0.497957
0.110395 0.249261 0.497957
0.249261 0.249261 0.497957
0.372258 0.249261 0.497957
0.497957 0.249261 0.497957
0.626025 0.249261 0.497957
0.748948 0.249261 0.497957
0.874813 0.249261 0.497957
1.000000 0.249261 0.497957
0.000000 0.372258 0.497957
0.110395 0.372258 0.497957
0.249261 0.372258 0.497957
0.372258 0.372258 0.497957
0.497957 0.372258 0.497957
0.626025 0.372258 0.497957
0.748948 0.372258 0.497957
0.874813 0.372258 0.497957
1.000000 0.372258 0.497957
0.000000 0.497957 0.497957
0.110395 0.497957 0.497957
0.249261 0.497957 0.497957
0.372258 0.497957 0.497957
0.497957 0.497957 0.497957
0.626025 0.497957 0.497957
0.748948 0.497957 0.497957
0.874813 0.497957 0.497957
1.000000 0.497957 0.497957
0.000000 0.626025 0.497957
0.110395 0.626025 0.497957
0.249261 0.626025 0.497957
0.372258 0.626025 0.497957
0.497957 0.626025 0.497957
0.626025 0.626025 0.497957
0.748948 0.626025 0.497957
0.874813 0.626025 0.497957
1.000000 0.626025 0.497957
0.000000 0.748948 0.497957
0.110395 0.748948 0.497957
0.249261 0.748948 0.497957
0.372258 0.748948 0.497957
0.497957 0.748948 0.497957
0.626025 0.748948 0.497957
0.748948 0.748948 0.497957
0.874813 0.748948 0.497957
1.000000 0.748948 0.497957
0.000000 0.874813 0.497957
0.110395 0.874813 0.497957
0.249261 0.874813 0.497957
0.372258 0.874813 0.497957
0.497957 0.874813 0.497957
0.626025 0.874813 0.497957
0.748948 0.874813 0.497957
0.874813 0.874813 0.497957
1.000000 0.874813 0.497957
0.000000 1.000000 0.497957
0.110395 1.000000 0.497957
0.249261 1.000000 0.497957
0.372258 1.000000 0.497957
0.497957 1.000000 0.497957
0.626025 1.000000 0.497957
0.748948 1.000000 0.497957
0.874813 1.000000 0.497957
1.000000 1.000000 0.497957
0.000000 0.000000 0.626025
0.110395 0.000000 0.626025
0.249261 0.000000 0.626025
0.372258 0.000000 0.626025
0.497957 0.000000 0.626025
0.626025 0.000000 0.626025
0.748948 0.000000 0.626025
0.874813 0.000000 0.626025
1.000000 0.000000 0.626025
0.000000 0.110395 0.626025
0.110395 0.110395 0.626025
0.249261 0.110395 0.626025
0.372258 0.110395 0.626025
0.497957 0.110395 0.626025
0.626025 0.110395 0.626025
0.748948 0.110395 0.626025
0.874813 0.110395 0.626025
1.000000 0.110395 0.626025
0.000000 0.249261 0.626025
0.110395 0.249261 0.626025
0.249261 0.249261 0.626025
0.372258 0.249261 0.626025
0.497957 0.249261 0.626025
0.626025 0.249261 0.626025
0.748948 0.249261 0.626025
0.874813 0.249261 0.626025
1.000000 0.249261 0.626025
0.000000 0.372258 0.626025
0.110395 0.372258 0.626025
0.249261 0.372258 0.626025
0.372258 0.372258 0.626025
0.497957 0.372258 0.626025
0.626025 0.372258 0.626025
0.748948 0.372258 0.626025
0.874813 0.372258 0.626025
1.000000 0.372258 0.626025
0.000000 0.497957 0.626025
0.110395 0.497957 0.626025
0.249261 0.497957 0.626025
0.372258 0.497957 0.626025
0.497957 0.497957 0.626025
0.626025 0.497957 0.626025
0.748948 0.497957 0.626025
0.874813 0.497957 0.626025
1.000000 0.497957 0.626025
0.000000 0.626025 0.626025
0.110395 0.626025 0.626025
0.249261 0.626025 0.626025
0.372258 0.626025 0.626025
0.497957 0.626025 0.626025
0.626025 0.626025 0.626025
0.748948 0.626025 0.626025
0.874813 0.626025 0.626025
1.000000 0.626025 0.626025
0.000000 0.748948 0.626025
0.110395 0.748948 0.626025
0.249261 0.748948 0.626025
0.372258 0.748948 0.626025
0.497957 0.748948 0.626025
0.626025 0.748948 0.626025
0.748948 0.748948 0.626025
0.874813 0.748948 0.626025
1.000000 0.748948 0.626025
0.000000 0.874813 0.626025
0.110395 0.874813 0.626025
0.249261 0.874813 0.626025
0.372258 0.874813 0.626025
0.497957 0.874813 0.626025
0.626025 0.874813 0.626025
0.748948 0.874813 0.626025
0.874813 0.874813 0.626025
1.000000 0.874813 0.626025
0.000000 1.000000 0.626025
0.110395 1.000000 0.626025
0.249261 1.000000 0.626025
0.372258 1.000000 0.626025
0.497957 1.000000 0.626025
0.626025 1.000000 0.626025
0.748948 1.000000 0.626025
0.874813 1.000000 0.626025
1.000000 1.000000 0.626025
0.000000 0.000000 0.748948
0.110395 0.000000 0.748948
0.249261 0.000000 0.748948
0.372258 0.000000 0.748948
0.497957 0.000000 0.748948
0.626025 0.000000 0.748948
0.748948 0.000000 0.748948
0.874813 0.000000 0.748948
1.000000 0.000000 0.748948
0.000000 0.110395 0.748948
0.110395 0.110395 0.748948
0.249261 0.110395 0.748948
0.372258 0.110395 0.748948
0.497957 0.110395 0.748948
0.626025 0.110395 0.748948
0.748948 0.110395 0.748948
0.874813 0.110395 0.748948
1.000000 0.110395 0.748948
0.000000 0.249261 0.748948
0.110395 0.249261 0.748948
0.249261 0.249261 0.748948
0.372258 0.249261 0.748948
0.497957 0.249261 0.748948
0.626025 0.249261 0.748948
0.748948 0.249261 0.748948
0.874813 0.249261 0.748948
1.000000 0.249261 0.748948
0.000000 0.372258 0.748948
0.110395 0.372258 0.748948
0.249261 0.372258 0.748948
0.372258 0.372258 0.748948
0.497957 0.372258 0.748948
0.626025 0.372258 0.748948
0.748948 0.372258 0.748948
0.874813 0.372258 0.748948
1.000000 0.372258 0.748948
0.000000 0.497957 0.748948
0.110395 0.497957 0.748948
0.249261 0.497957 0.748948
0.372258 0.497957 0.748948
0.497957 0.497957 0.748948
0.626025 0.497957 0.748948
0.748948 0.497957 0.748948
0.874813 0.497957 0.748948
1.000000 0.497957 0.748948
0.000000 0.626025 0.748948
0.110395 0.626025 0.748948
0.249261 0.626025 0.748948
0.372258 0.626025 0.748948
0.497957 0.626025 0.748948
0.626025 0.626025 0.748948
0.748948 0.626025 0.748948
0.874813 0.626025 0.748948
1.000000 0.626025 0.748948
0.000000 0.748948 0.748948
0.110395 0.748948 0.748948
0.249261 0.748948 0.748948
0.372258 0.748948 0.748948
0.497957 0.748948 0.748948
0.626025 0.748948 0.748948
0.748948 0.748948 0.748948
0.874813 0.748948 0.748948
1.000000 0.748948 0.748948
0.000000 0.874813 0.748948
0.110395 0.874813 0.748948
0.249261 0.874813 0.748948
0.372258 0.874813 0.748948
0.497957 0.874813 0.748948
0.626025 0.874813 0.748948
0.748948 0.874813 0.748948
0.874813 0.874813 0.748948
1.000000 0.874813 0.748948
0.000000 1.000000 0.748948
0.110395 1.000000 0.748948
0.249261 1.000000 0.748948
0.372258 1.000000 0.748948
0.497957 1.000000 0.748948
0.626025 1.000000 0.748948
0.748948 1.000000 0.748948
0.874813 1.000000 0.748948
1.000000 1.000000 0.748948
0.000000 0.000000 0.874813
0.110395 0.000000 0.874813
0.249261 0.000000 0.874813
0.372258 0.000000 0.874813
0.497957 0.000000 0.874813
0.626025 0.000000 0.874813
0.748948 0.000000 0.874813
0.874813 0.000000 0.874813
1.000000 0.000000 0.874813
0.000000 0.110395 0.874813
0.110395 0.110395 0.874813
0.249261 0.110395 0.874813
0.372258 0.110395 0.874813
0.497957 0.110395 0.874813
0.626025 0.110395 0.874813
0.748948 0.110395 0.874813
0.874813 0.110395 0.874813
1.000000 0.110395 0.874813
0.000000 0.249261 0.874813
0.110395 0.249261 0.874813
0.249261 0.249261 0.874813
0.372258 0.249261 0.874813
0.497957 0.249261 0.874813
0.626025 0.249261 0.874813
0.748948 0.249261 0.874813
0.874813 0.249261 0.874813
1.000000 0.249261 0.874813
0.000000 0.372258 0.874813
0.110395 0.372258 0.874813
0.249261 0.372258 0.874813
0.372258 0.372258 0.874813
0.497957 0.372258 0.874813
0.626025 0.372258 0.874813
0.748948 0.372258 0.874813
0.874813 0.372258 0.874813
1.000000 0.372258 0.874813
0.000000 0.497957 0.874813
0.110395 0.497957 0.874813
0.249261 0.497957 0.874813
0.372258 0.497957 0.874813
0.497957 0.497957 0.874813
0.626025 0.497957 0.874813
0.748948 0.497957 0.874813
0.874813 0.497957 0.874813
1.000000 0.497957 0.874813
0.000000 0.626025 0.874813
0.110395 0.626025 0.874813
0.249261 0.626025 0.874813
0.372258 0.626025 0.874813
0.497957 0.626025 0.874813
0.626025 0.626025 0.874813
0.748948 0.626025 0.874813
0.874813 0.626025 0.874813
1.000000 0.626025 0.874813
0.000000 0.748948 0.874813
0.110395 0.748948 0.874813
0.249261 0.748948 0.874813
0.372258 0.748948 0.874813
0.497957 0.748948 0.874813
0.626025 0.748948 0.874813
0.748948 0.748948 0.874813
0.874813 0.748948 0.874813
1.000000 0.748948 0.874813
0.000000 0.874813 0.874813
0.110395 0.874813 0.874813
0.249261 0.874813 0.874813
0.372258 0.874813 0.874813
0.497957 0.874813 0.874813
0.626025 0.874813 0.874813
0.748948 0.874813 0.874813
0.874813 0.874813 0.874813
1.000000 0.874813 0.874813
0.000000 1.000000 0.874813
0.110395 1.000000 0.874813
0.249261 1.000000 0.874813
0.372258 1.000000 0.874813
0.497957 1.000000 0.874813
0.626025 1.000000 0.874813
0.748948 1.000000 0.874813
0.874813 1.000000 0.874813
1.000000 1.000000 0.874813
0.000000 0.000000 1.000000
0.110395 0.000000 1.000000
0.249261 0.000000 1.000000
0.372258 0.000000 1.000000
0.497957 0.000000 1.000000
0.626025 0.000000 1.000000
0.748948 0.000000 1.000000
0.874813 0.000000 1.000000
1.000000 0.000000 1.000000
0.000000 0.110395 1.000000
0.110395 0.110395 1.000000
0.249261 0.110395 1.000000
0.372258 0.110395 1.000000
0.497957 0.110395 1.000000
0.626025 0.110395 1.000000
0.748948 0.110395 1.000000
0.874813 0.110395 1.000000
1.000000 0.110395 1.000000
0.000000 0.249261 1.000000
0.110395 0.249261 1.000000
0.249261 0.249261 1.000000
0.372258 0.249261 1.000000
0.497957 0.249261 1.000000
0.626025 0.249261 1.000000
0.748948 0.249261 1.000000
0.874813 0.249261 1.000000
1.000000 0.249261 1.000000
0.000000 0.372258 1.000000
0.110395 0.372258 1.000000
0.249261 0.372258 1.000000
0.372258 0.372258 1.000000
0.497957 0.372258 1.000000
0.626025 0.372258 1.000000
0.748948 0.372258 1.000000
0.874813 0.372258 1.000000
1.000000 0.372258 1.000000
0.000000 0.497957 1.000000
0.110395 0.497957 1.000000
0.249261 0.497957 1.000000
0.372258 0.497957 1.000000
0.497957 0.497957 1.000000
0.626025 0.497957 1.000000
0.748948 0.497957 1.000000
0.874813 0.497957 1.000000
1.000000 0.497957 1.000000
0.000000 0.626025 1.000000
0.110395 0.626025 1.000000
0.249261 0.626025 1.000000
0.372258 0.626025 1.000000
0.497957 0.626025 1.000000
0.626025 0.626025 1.000000
0.748948 0.626025 1.000000
0.874813 0.626025 1.000000
1.000000 0.626025 1.000000
0.000000 0.748948 1.000000
0.110395 0.748948 1.000000
0.249261 0.748948 1.000000
0.372258 0.748948 1.000000
0.497957 0.748948 1.000000
0.626025 0.748948 1.000000
0.748948 0.748948 1.000000
0.874813 0.748948 1.000000
1.000000 0.748948 1.000000
0.000000 0.874813 1.000000
0.110395 0.874813 1.000000
0.249261 0.874813 1.000000
0.372258 0.874813 1.000000
0.497957 0.874813 1.000000
0.626025 0.874813 1.000000
0.748948 0.874813 1.000000
0.874813 0.874813 1.000000
1.000000 0.874813 1.000000
0.000000 1.000000 1.000000
0.110395 1.000000 1.000000
0.249261 1.000000 1.000000
0.372258 1.000000 1.000000
0.497957 1.000000 1.000000
0.626025 1.000000 1.000000
0.748948 1.000000 1.000000
0.874813 1.000000 1.000000
1.000000 1.000000 1.000000
