game/materials/generated_lut.cube
TITLE "Exported LUT"
LUT_3D_SIZE 17
DOMAIN_MIN 0.0 0.0 0.0
DOMAIN_MAX 1.0 1.0 1.0
0.000000 0.000000 0.000000
0.000000 0.000000 0.000000
0.110395 0.000000 0.000000
0.181896 0.000000 0.000000
0.249261 0.000000 0.000000
0.307164 0.000000 0.000000
0.372258 0.000000 0.000000
0.435714 0.000000 0.000000
0.497957 0.000000 0.000000
0.562808 0.000000 0.000000
0.626025 0.000000 0.000000
0.687988 0.000000 0.000000
0.748948 0.000000 0.000000
0.813660 0.000000 0.000000
0.874813 0.000000 0.000000
0.938949 0.000000 0.000000
1.000000 0.000000 0.000000
0.000000 0.000000 0.000000
0.000000 0.000000 0.000000
0.110395 0.000000 0.000000
0.181896 0.000000 0.000000
0.249261 0.000000 0.000000
0.307164 0.000000 0.000000
0.372258 0.000000 0.000000
0.435714 0.000000 0.000000
0.497957 0.000000 0.000000
0.562808 0.000000 0.000000
0.626025 0.000000 0.000000
0.687988 0.000000 0.000000
0.748948 0.000000 0.000000
0.813660 0.000000 0.000000
0.874813 0.000000 0.000000
0.938949 0.000000 0.000000
1.000000 0.000000 0.000000
0.000000 0.110395 0.000000
0.000000 0.110395 0.000000
0.110395 0.110395 0.000000
0.181896 0.110395 0.000000
0.249261 0.110395 0.000000
0.307164 0.110395 0.000000
0.372258 0.110395 0.000000
0.435714 0.110395 0.000000
0.497957 0.110395 0.000000
0.562808 0.110395 0.000000
0.626025 0.110395 0.000000
0.687988 0.110395 0.000000
0.748948 0.110395 0.000000
0.813660 0.110395 0.000000
0.874813 0.110395 0.000000
0.938949 0.110395 0.000000
1.000000 0.110395 0.000000
0.000000 0.181896 0.000000
0.000000 0.181896 0.000000
0.110395 0.181896 0.000000
0.181896 0.181896 0.000000
0.249261 0.181896 0.000000
0.307164 0.181896 0.000000
0.372258 0.181896 0.000000
0.435714 0.181896 0.000000
0.497957 0.181896 0.000000
0.562808 0.181896 0.000000
0.626025 0.181896 0.000000
0.687988 0.181896 0.000000
0.748948 0.181896 0.000000
0.813660 0.181896 0.000000
0.874813 0.181896 0.000000
0.938949 0.181896 0.000000
1.000000 0.181896 0.000000
0.000000 0.249261 0.000000
0.000000 0.249261 0.000000
0.110395 0.249261 0.000000
0.181896 0.249261 0.000000
0.249261 0.249261 0.000000
0.307164 0.249261 0.000000
0.372258 0.249261 0.000000
0.435714 0.249261 0.000000
0.497957 0.249261 0.000000
0.562808 0.249261 0.000000
0.626025 0.249261 0.000000
0.687988 0.249261 0.000000
0.748948 0.249261 0.000000
0.813660 0.249261 0.000000
0.874813 0.249261 0.000000
0.938949 0.249261 0.000000
1.000000 0.249261 0.000000
0.000000 0.307164 0.000000
0.000000 0.307164 0.000000
0.110395 0.307164 0.000000
0.181896 0.307164 0.000000
0.249261 0.307164 0.000000
0.307164 0.307164 0.000000
0.372258 0.307164 0.000000
0.435714 0.307164 0.000000
0.497957 0.307164 0.000000
0.562808 0.307164 0.000000
0.626025 0.307164 0.000000
0.687988 0.307164 0.000000
0.748948 0.307164 0.000000
0.813660 0.307164 0.000000
0.874813 0.307164 0.000000
0.938949 0.307164 0.000000
1.000000 0.307164 0.000000
0.000000 0.372258 0.000000
0.000000 0.372258 0.000000
0.110395 0.372258 0.000000
0.181896 0.372258 0.000000
0.249261 0.372258 0.000000
0.307164 0.372258 0.000000
0.372258 0.372258 0.000000
0.435714 0.372258 0.000000
0.497957 0.372258 0.000000
0.562808 0.372258 0.000000
0.626025 0.372258 0.000000
0.687988 0.372258 0.000000
0.748948 0.372258 0.000000
0.813660 0.372258 0.000000
0.874813 0.372258 0.000000
0.938949 0.372258 0.000000
1.000000 0.372258 0.000000
0.000000 0.435714 0.000000
0.000000 0.435714 0.000000
0.110395 0.435714 0.000000
0.181896 0.435714 0.000000
0.249261 0.435714 0.000000
0.307164 0.435714 0.000000
0.372258 0.435714 0.000000
0.435714 0.435714 0.000000
0.497957 0.435714 0.000000
0.562808 0.435714 0.000000
0.626025 0.435714 0.000000
0.687988 0.435714 0.000000
0.748948 0.435714 0.000000
0.813660 0.435714 0.000000
0.874813 0.435714 0.000000
0.938949 0.435714 0.000000
1.000000 0.435714 0.000000
0.000000 0.497957 0.000000
0.000000 0.497957 0.000000
0.110395 0.497957 0.000000
0.181896 0.497957 0.000000
0.249261 0.497957 0.000000
0.307164 0.497957 0.000000
0.372258 0.497957 0.000000
0.435714 0.497957 0.000000
0.497957 0.497957 0.000000
0.562808 0.497957 0.000000
0.626025 0.497957 0.000000
0.687988 0.497957 0.000000
0.748948 0.497957 0.000000
0.813660 0.497957 0.000000
0.874813 0.497957 0.000000
0.938949 0.497957 0.000000
1.000000 0.497957 0.000000
0.000000 0.562808 0.000000
0.000000 0.562808 0.000000
0.110395 0.562808 0.000000
0.181896 0.562808 0.000000
0.249261 0.562808 0.000000
0.307164 0.562808 0.000000
0.372258 0.562808 0.000000
0.435714 0.562808 0.000000
0.497957 0.562808 0.000000
0.562808 0.562808 0.000000
0.626025 0.562808 0.000000
0.687988 0.562808 0.000000
0.748948 0.562808 0.000000
0.813660 0.562808 0.000000
0.874813 0.562808 0.000000
0.938949 0.562808 0.000000
1.000000 0.562808 0.000000
0.000000 0.626025 0.000000
0.000000 0.626025 0.000000
0.110395 0.626025 0.000000
0.181896 0.626025 0.000000
0.249261 0.626025 0.000000
0.307164 0.626025 0.000000
0.372258 0.626025 0.000000
0.435714 0.626025 0.000000
0.497957 0.626025 0.000000
0.562808 0.626025 0.000000
0.626025 0.626025 0.000000
0.687988 0.626025 0.000000
0.748948 0.626025 0.000000
0.813660 0.626025 0.000000
0.874813 0.626025 0.000000
0.938949 0.626025 0.000000
1.000000 0.626025 0.000000
0.000000 0.687988 0.000000
0.000000 0.687988 0.000000
0.110395 0.687988 0.000000
0.181896 0.687988 0.000000
0.249261 0.687988 0.000000
0.307164 0.687988 0.000000
0.372258 0.687988 0.000000
0.435714 0.687988 0.000000
0.497957 0.687988 0.000000
0.562808 0.687988 0.000000
0.626025 0.687988 0.000000
0.687988 0.687988 0.000000
0.748948 0.687988 0.000000
0.813660 0.687988 0.000000
0.874813 0.687988 0.000000
0.938949 0.687988 0.000000
1.000000 0.687988 0.000000
0.000000 0.748948 0.000000
0.000000 0.748948 0.000000
0.110395 0.748948 0.000000
0.181896 0.748948 0.000000
0.249261 0.748948 0.000000
0.307164 0.748948 0.000000
0.372258 0.748948 0.000000
0.435714 0.748948 0.000000
0.497957 0.748948 0.000000
0.562808 0.748948 0.000000
0.626025 0.748948 0.000000
0.687988 0.748948 0.000000
0.748948 0.748948 0.000000
0.813660 0.748948 0.000000
0.874813 0.748948 0.000000
0.938949 0.748948 0.000000
1.000000 0.748948 0.000000
0.000000 0.813660 0.000000
0.000000 0.813660 0.000000
0.110395 0.813660 0.000000
0.181896 0.813660 0.000000
0.249261 0.813660 0.000000
0.307164 0.813660 0.000000
0.372258 0.813660 0.000000
0.435714 0.813660 0.000000
0.497957 0.813660 0.000000
0.562808 0.813660 0.000000
0.626025 0.813660 0.000000
0.687988 0.813660 0.000000
0.748948 0.813660 0.000000
0.813660 0.813660 0.000000
0.874813 0.813660 0.000000
0.938949 0.813660 0.000000
1.000000 0.813660 0.000000
0.000000 0.874813 0.000000
0.000000 0.874813 0.000000
0.110395 0.874813 0.000000
0.181896 0.874813 0.000000
0.249261 0.874813 0.000000
0.307164 0.874813 0.000000
0.372258 0.874813 0.000000
0.435714 0.874813 0.000000
0.497957 0.874813 0.000000
0.562808 0.874813 0.000000
0.626025 0.874813 0.000000
0.687988 0.874813 0.000000
0.748948 0.874813 0.000000
0.813660 0.874813 0.000000
0.874813 0.874813 0.000000
0.938949 0.874813 0.000000
1.000000 0.874813 0.000000
0.000000 0.938949 0.000000
0.000000 0.938949 0.000000
0.110395 0.938949 0.000000
0.181896 0.938949 0.000000
0.249261 0.938949 0.000000
0.307164 0.938949 0.000000
0.372258 0.938949 0.000000
0.435714 0.938949 0.000000
0.497957 0.938949 0.000000
0.562808 0.938949 0.000000
0.626025 0.938949 0.000000
0.687988 0.938949 0.000000
0.748948 0.938949 0.000000
0.813660 0.938949 0.000000
0.874813 0.938949 0.000000
0.938949 0.938949 0.000000
1.000000 0.938949 0.000000
0.000000 1.000000 0.000000
0.000000 1.000000 0.000000
0.110395 1.000000 0.000000
0.181896 1.000000 0.000000
0.249261 1.000000 0.000000
0.307164 1.000000 0.000000
0.372258 1.000000 0.000000
0.435714 1.000000 0.000000
0.497957 1.000000 0.000000
0.562808 1.000000 0.000000
0.626025 1.000000 0.000000
0.687988 1.000000 0.000000
0.748948 1.000000 0.000000
0.813660 1.000000 0.000000
0.874813 1.000000 0.000000
0.938949 1.000000 0.000000
1.000000 1.000000 0.000000
0.000000 0.000000 0.000000
0.000000 0.000000 0.000000
0.110395 0.000000 0.000000
0.181896 0.000000 0.000000
0.249261 0.000000 0.000000
0.307164 0.000000 0.000000
0.372258 0.000000 0.000000
0.435714 0.000000 0.000000
0.497957 0.000000 0.000000
0.562808 0.000000 0.000000
0.626025 0.000000 0.000000
0.687988 0.000000 0.000000
0.748948 0.000000 0.000000
0.813660 0.000000 0.000000
0.874813 0.000000 0.000000
0.938949 0.000000 0.000000
1.000000 0.000000 0.000000
0.000000 0.000000 0.000000
0.000000 0.000000 0.000000
0.110395 0.000000 0.000000
0.181896 0.000000 0.000000
0.249261 0.000000 0.000000
0.307164 0.000000 0.000000
0.372258 0.000000 0.000000
0.435714 0.000000 0.000000
0.497957 0.000000 0.000000
0.562808 0.000000 0.000000
0.626025 0.000000 0.000000
0.687988 0.000000 0.000000
0.748948 0.000000 0.000000
0.813660 0.000000 0.000000
0.874813 0.000000 0.000000
0.938949 0.000000 0.000000
1.000000 0.000000 0.000000
0.000000 0.110395 0.000000
0.000000 0.110395 0.000000
0.110395 0.110395 0.000000
0.181896 0.110395 0.000000
0.249261 0.110395 0.000000
0.307164 0.110395 0.000000
0.372258 0.110395 0.000000
0.435714 0.110395 0.000000
0.497957 0.110395 0.000000
0.562808 0.110395 0.000000
0.626025 0.110395 0.000000
0.687988 0.110395 0.000000
0.748948 0.110395 0.000000
0.813660 0.110395 0.000000
0.874813 0.110395 0.000000
0.938949 0.110395 0.000000
1.000000 0.110395 0.000000
0.000000 0.181896 0.000000
0.000000 0.181896 0.000000
0.110395 0.181896 0.000000
0.181896 0.181896 0.000000
0.249261 0.181896 0.000000
0.307164 0.181896 0.000000
0.372258 0.181896 0.000000
0.435714 0.181896 0.000000
0.497957 0.181896 0.000000
0.562808 0.181896 0.000000
0.626025 0.181896 0.000000
0.687988 0.181896 0.000000
0.748948 0.181896 0.000000
0.813660 0.181896 0.000000
0.874813 0.181896 0.000000
0.938949 0.181896 0.000000
1.000000 0.181896 0.000000
0.000000 0.249261 0.000000
0.000000 0.249261 0.000000
0.110395 0.249261 0.000000
0.181896 0.249261 0.000000
0.249261 0.249261 0.000000
0.307164 0.249261 0.000000
0.372258 0.249261 0.000000
0.435714 0.249261 0.000000
0.497957 0.249261 0.000000
0.562808 0.249261 0.000000
0.626025 0.249261 0.000000
0.687988 0.249261 0.000000
0.748948 0.249261 0.000000
0.813660 0.249261 0.000000
0.874813 0.249261 0.000000
0.938949 0.249261 0.000000
1.000000 0.249261 0.000000
0.000000 0.307164 0.000000
0.000000 0.307164 0.000000
0.110395 0.307164 0.000000
0.181896 0.307164 0.000000
0.249261 0.307164 0.000000
0.307164 0.307164 0.000000
0.372258 0.307164 0.000000
0.435714 0.307164 0.000000
0.497957 0.307164 0.000000
0.562808 0.307164 0.000000
0.626025 0.307164 0.000000
0.687988 0.307164 0.000000
0.748948 0.307164 0.000000
0.813660 0.307164 0.000000
0.874813 0.307164 0.000000
0.938949 0.307164 0.000000
1.000000 0.307164 0.000000
0.000000 0.372258 0.000000
0.000000 0.372258 0.000000
0.110395 0.372258 0.000000
0.181896 0.372258 0.000000
0.249261 0.372258 0.000000
0.307164 0.372258 0.000000
0.372258 0.372258 0.000000
0.435714 0.372258 0.000000
0.497957 0.372258 0.000000
0.562808 0.372258 0.000000
0.626025 0.372258 0.000000
0.687988 0.372258 0.000000
0.748948 0.372258 0.000000
0.813660 0.372258 0.000000
0.874813 0.372258 0.000000
0.938949 0.372258 0.000000
1.000000 0.372258 0.000000
0.000000 0.435714 0.000000
0.000000 0.435714 0.000000
0.110395 0.435714 0.000000
0.181896 0.435714 0.000000
0.249261 0.435714 0.000000
0.307164 0.435714 0.000000
0.372258 0.435714 0.000000
0.435714 0.435714 0.000000
0.497957 0.435714 0.000000
0.562808 0.435714 0.000000
0.626025 0.435714 0.000000
0.687988 0.435714 0.000000
0.748948 0.435714 0.000000
0.813660 0.435714 0.000000
0.874813 0.435714 0.000000
0.938949 0.435714 0.000000
1.000000 0.435714 0.000000
0.000000 0.497957 0.000000
0.000000 0.497957 0.000000
0.110395 0.497957 0.000000
0.181896 0.497957 0.000000
0.249261 0.497957 0.000000
0.307164 0.497957 0.000000
0.372258 0.497957 0.000000
0.435714 0.497957 0.000000
0.497957 0.497957 0.000000
0.562808 0.497957 0.000000
0.626025 0.497957 0.000000
0.687988 0.497957 0.000000
0.748948 0.497957 0.000000
0.813660 0.497957 0.000000
0.874813 0.497957 0.000000
0.938949 0.497957 0.000000
1.000000 0.497957 0.000000
0.000000 0.562808 0.000000
0.000000 0.562808 0.000000
0.110395 0.562808 0.000000
0.181896 0.562808 0.000000
0.249261 0.562808 0.000000
0.307164 0.562808 0.000000
0.372258 0.562808 0.000000
0.435714 0.562808 0.000000
0.497957 0.562808 0.000000
0.562808 0.562808 0.000000
0.626025 0.562808 0.000000
0.687988 0.562808 0.000000
0.748948 0.562808 0.000000
0.813660 0.562808 0.000000
0.874813 0.562808 0.000000
0.938949 0.562808 0.000000
1.000000 0.562808 0.000000
0.000000 0.626025 0.000000
0.000000 0.626025 0.000000
0.110395 0.626025 0.000000
0.181896 0.626025 0.000000
0.249261 0.626025 0.000000
0.307164 0.626025 0.000000
0.372258 0.626025 0.000000
0.435714 0.626025 0.000000
0.497957 0.626025 0.000000
0.562808 0.626025 0.000000
0.626025 0.626025 0.000000
0.687988 0.626025 0.000000
0.748948 0.626025 0.000000
0.813660 0.626025 0.000000
0.874813 0.626025 0.000000
0.938949 0.626025 0.000000
1.000000 0.626025 0.000000
0.000000 0.687988 0.000000
0.000000 0.687988 0.000000
0.110395 0.687988 0.000000
0.181896 0.687988 0.000000
0.249261 0.687988 0.000000
0.307164 0.687988 0.000000
0.372258 0.687988 0.000000
0.435714 0.687988 0.000000
0.497957 0.687988 0.000000
0.562808 0.687988 0.000000
0.626025 0.687988 0.000000
0.687988 0.687988 0.000000
0.748948 0.687988 0.000000
0.813660 0.687988 0.000000
0.874813 0.687988 0.000000
0.938949 0.687988 0.000000
1.000000 0.687988 0.000000
0.000000 0.748948 0.000000
0.000000 0.748948 0.000000
0.110395 0.748948 0.000000
0.181896 0.748948 0.000000
0.249261 0.748948 0.000000
0.307164 0.748948 0.000000
0.372258 0.748948 0.000000
0.435714 0.748948 0.000000
0.497957 0.748948 0.000000
0.562808 0.748948 0.000000
0.626025 0.748948 0.000000
0.687988 0.748948 0.000000
0.748948 0.748948 0.000000
0.813660 0.748948 0.000000
0.874813 0.748948 0.000000
0.938949 0.748948 0.000000
1.000000 0.748948 0.000000
0.000000 0.813660 0.000000
0.000000 0.813660 0.000000
0.110395 0.813660 0.000000
0.181896 0.813660 0.000000
0.249261 0.813660 0.000000
0.307164 0.813660 0.000000
0.372258 0.813660 0.000000
0.435714 0.813660 0.000000
0.497957 0.813660 0.000000
0.562808 0.813660 0.000000
0.626025 0.813660 0.000000
0.687988 0.813660 0.000000
0.748948 0.813660 0.000000
0.813660 0.813660 0.000000
0.874813 0.813660 0.000000
0.938949 0.813660 0.000000
1.000000 0.813660 0.000000
0.000000 0.874813 0.000000
0.000000 0.874813 0.000000
0.110395 0.874813 0.000000
0.181896 0.874813 0.000000
0.249261 0.874813 0.000000
0.307164 0.874813 0.000000
0.372258 0.874813 0.000000
0.435714 0.874813 0.000000
0.497957 0.874813 0.000000
0.562808 0.874813 0.000000
0.626025 0.874813 0.000000
0.687988 0.874813 0.000000
0.748948 0.874813 0.000000
0.813660 0.874813 0.000000
0.874813 0.874813 0.000000
0.938949 0.874813 0.000000
1.000000 0.874813 0.000000
0.000000 0.938949 0.000000
0.000000 0.938949 0.000000
0.110395 0.938949 0.000000
0.181896 0.938949 0.000000
0.249261 0.938949 0.000000
0.307164 0.938949 0.000000
0.372258 0.938949 0.000000
0.435714 0.938949 0.000000
0.497957 0.938949 0.000000
0.562808 0.938949 0.000000
0.626025 0.938949 0.000000
0.687988 0.938949 0.000000
0.748948 0.938949 0.000000
0.813660 0.938949 0.000000
0.874813 0.938949 0.000000
0.938949 0.938949 0.000000
1.000000 0.938949 0.000000
0.000000 1.000000 0.000000
0.000000 1.000000 0.000000
0.110395 1.000000 0.000000
0.181896 1.000000 0.000000
0.249261 1.000000 0.000000
0.307164 1.000000 0.000000
0.372258 1.000000 0.000000
0.435714 1.000000 0.000000
0.497957 1.000000 0.000000
0.562808 1.000000 0.000000
0.626025 1.000000 0.000000
0.687988 1.000000 0.000000
0.748948 1.000000 0.000000
0.813660 1.000000 0.000000
0.874813 1.000000 0.000000
0.938949 1.000000 0.000000
1.000000 1.000000 0.000000
0.000000 0.000000 0.110395
0.000000 0.000000 0.110395
0.110395 0.000000 0.110395
0.181896 0.000000 0.110395
0.249261 0.000000 0.110395
0.307164 0.000000 0.110395
0.372258 0.000000 0.110395
0.435714 0.000000 0.110395
0.497957 0.000000 0.110395
0.562808 0.000000 0.110395
0.626025 0.000000 0.110395
0.687988 0.000000 0.110395
0.748948 0.000000 0.110395
0.813660 0.000000 0.110395
0.874813 0.000000 0.110395
0.938949 0.000000 0.110395
1.000000 0.000000 0.110395
0.000000 0.000000 0.110395
0.000000 0.000000 0.110395
0.110395 0.000000 0.110395
0.181896 0.000000 0.110395
0.249261 0.000000 0.110395
0.307164 0.000000 0.110395
0.372258 0.000000 0.110395
0.435714 0.000000 0.110395
0.497957 0.000000 0.110395
0.562808 0.000000 0.110395
0.626025 0.000000 0.110395
0.687988 0.000000 0.110395
0.748948 0.000000 0.110395
0.813660 0.000000 0.110395
0.874813 0.000000 0.110395
0.938949 0.000000 0.110395
1.000000 0.000000 0.110395
0.000000 0.110395 0.110395
0.000000 0.110395 0.110395
0.110395 0.110395 0.110395
0.181896 0.110395 0.110395
0.249261 0.110395 0.110395
0.307164 0.110395 0.110395
0.372258 0.110395 0.110395
0.435714 0.110395 0.110395
0.497957 0.110395 0.110395
0.562808 0.110395 0.110395
0.626025 0.110395 0.110395
0.687988 0.110395 0.110395
0.748948 0.110395 0.110395
0.813660 0.110395 0.110395
0.874813 0.110395 0.110395
0.938949 0.110395 0.110395
1.000000 0.110395 0.110395
0.000000 0.181896 0.110395
0.000000 0.181896 0.110395
0.110395 0.181896 0.110395
0.181896 0.181896 0.110395
0.249261 0.181896 0.110395
0.307164 0.181896 0.110395
0.372258 0.181896 0.110395
0.435714 0.181896 0.110395
0.497957 0.181896 0.110395
0.562808 0.181896 0.110395
0.626025 0.181896 0.110395
0.687988 0.181896 0.110395
0.748948 0.181896 0.110395
0.813660 0.181896 0.110395
0.874813 0.181896 0.110395
0.938949 0.181896 0.110395
1.000000 0.181896 0.110395
0.000000 0.249261 0.110395
0.000000 0.249261 0.110395
0.110395 0.249261 0.110395
0.181896 0.249261 0.110395
0.249261 0.249261 0.110395
0.307164 0.249261 0.110395
0.372258 0.249261 0.110395
0.435714 0.249261 0.110395
0.497957 0.249261 0.110395
0.562808 0.249261 0.110395
0.626025 0.249261 0.110395
0.687988 0.249261 0.110395
0.748948 0.249261 0.110395
0.813660 0.249261 0.110395
0.874813 0.249261 0.110395
0.938949 0.249261 0.110395
1.000000 0.249261 0.110395
0.000000 0.307164 0.110395
0.000000 0.307164 0.110395
0.110395 0.307164 0.110395
0.181896 0.307164 0.110395
0.249261 0.307164 0.110395
0.307164 0.307164 0.110395
0.372258 0.307164 0.110395
0.435714 0.307164 0.110395
0.497957 0.307164 0.110395
0.562808 0.307164 0.110395
0.626025 0.307164 0.110395
0.687988 0.307164 0.110395
0.748948 0.307164 0.110395
0.813660 0.307164 0.110395
0.874813 0.307164 0.110395
0.938949 0.307164 0.110395
1.000000 0.307164 0.110395
0.000000 0.372258 0.110395
0.000000 0.372258 0.110395
0.110395 0.372258 0.110395
0.181896 0.372258 0.110395
0.249261 0.372258 0.110395
0.307164 0.372258 0.110395
0.372258 0.372258 0.110395
0.435714 0.372258 0.110395
0.497957 0.372258 0.110395
0.562808 0.372258 0.110395
0.626025 0.372258 0.110395
0.687988 0.372258 0.110395
0.748948 0.372258 0.110395
0.813660 0.372258 0.110395
0.874813 0.372258 0.110395
0.938949 0.372258 0.110395
1.000000 0.372258 0.110395
0.000000 0.435714 0.110395
0.000000 0.435714 0.110395
0.110395 0.435714 0.110395
0.181896 0.435714 0.110395
0.249261 0.435714 0.110395
0.307164 0.435714 0.110395
0.372258 0.435714 0.110395
0.435714 0.435714 0.110395
0.497957 0.435714 0.110395
0.562808 0.435714 0.110395
0.626025 0.435714 0.110395
0.687988 0.435714 0.110395
0.748948 0.435714 0.110395
0.813660 0.435714 0.110395
0.874813 0.435714 0.110395
0.938949 0.435714 0.110395
1.000000 0.435714 0.110395
0.000000 0.497957 0.110395
0.000000 0.497957 0.110395
0.110395 0.497957 0.110395
0.181896 0.497957 0.110395
0.249261 0.497957 0.110395
0.307164 0.497957 0.110395
0.372258 0.497957 0.110395
0.435714 0.497957 0.110395
0.497957 0.497957 0.110395
0.562808 0.497957 0.110395
0.626025 0.497957 0.110395
0.687988 0.497957 0.110395
0.748948 0.497957 0.110395
0.813660 0.497957 0.110395
0.874813 0.497957 0.110395
0.938949 0.497957 0.110395
1.000000 0.497957 0.110395
0.000000 0.562808 0.110395
0.000000 0.562808 0.110395
0.110395 0.562808 0.110395
0.181896 0.562808 0.110395
0.249261 0.562808 0.110395
0.307164 0.562808 0.110395
0.372258 0.562808 0.110395
0.435714 0.562808 0.110395
0.497957 0.562808 0.110395
0.562808 0.562808 0.110395
0.626025 0.562808 0.110395
0.687988 0.562808 0.110395
0.748948 0.562808 0.110395
0.813660 0.562808 0.110395
0.874813 0.562808 0.110395
0.938949 0.562808 0.110395
1.000000 0.562808 0.110395
0.000000 0.626025 0.110395
0.000000 0.626025 0.110395
0.110395 0.626025 0.110395
0.181896 0.626025 0.110395
0.249261 0.626025 0.110395
0.307164 0.626025 0.110395
0.372258 0.626025 0.110395
0.435714 0.626025 0.110395
0.497957 0.626025 0.110395
0.562808 0.626025 0.110395
0.626025 0.626025 0.110395
0.687988 0.626025 0.110395
0.748948 0.626025 0.110395
0.813660 0.626025 0.110395
0.874813 0.626025 0.110395
0.938949 0.626025 0.110395
1.000000 0.626025 0.110395
0.000000 0.687988 0.110395
0.000000 0.687988 0.110395
0.110395 0.687988 0.110395
0.181896 0.687988 0.110395
0.249261 0.687988 0.110395
0.307164 0.687988 0.110395
0.372258 0.687988 0.110395
0.435714 0.687988 0.110395
0.497957 0.687988 0.110395
0.562808 0.687988 0.110395
0.626025 0.687988 0.110395
0.687988 0.687988 0.110395
0.748948 0.687988 0.110395
0.813660 0.687988 0.110395
0.874813 0.687988 0.110395
0.938949 0.687988 0.110395
1.000000 0.687988 0.110395
0.000000 0.748948 0.110395
0.000000 0.748948 0.110395
0.110395 0.748948 0.110395
0.181896 0.748948 0.110395
0.249261 0.748948 0.110395
0.307164 0.748948 0.110395
0.372258 0.748948 0.110395
0.435714 0.748948 0.110395
0.497957 0.748948 0.110395
0.562808 0.748948 0.110395
0.626025 0.748948 0.110395
0.687988 0.748948 0.110395
0.748948 0.748948 0.110395
0.813660 0.748948 0.110395
0.874813 0.748948 0.110395
0.938949 0.748948 0.110395
1.000000 0.748948 0.110395
0.000000 0.813660 0.110395
0.000000 0.813660 0.110395
0.110395 0.813660 0.110395
0.181896 0.813660 0.110395
0.249261 0.813660 0.110395
0.307164 0.813660 0.110395
0.372258 0.813660 0.110395
0.435714 0.813660 0.110395
0.497957 0.813660 0.110395
0.562808 0.813660 0.110395
0.626025 0.813660 0.110395
0.687988 0.813660 0.110395
0.748948 0.813660 0.110395
0.813660 0.813660 0.110395
0.874813 0.813660 0.110395
0.938949 0.813660 0.110395
1.000000 0.813660 0.110395
0.000000 0.874813 0.110395
0.000000 0.874813 0.110395
0.110395 0.874813 0.110395
0.181896 0.874813 0.110395
0.249261 0.874813 0.110395
0.307164 0.874813 0.110395
0.372258 0.874813 0.110395
0.435714 0.874813 0.110395
0.497957 0.874813 0.110395
0.562808 0.874813 0.110395
0.626025 0.874813 0.110395
0.687988 0.874813 0.110395
0.748948 0.874813 0.110395
0.813660 0.874813 0.110395
0.874813 0.874813 0.110395
0.938949 0.874813 0.110395
1.000000 0.874813 0.110395
0.000000 0.938949 0.110395
0.000000 0.938949 0.110395
0.110395 0.938949 0.110395
0.181896 0.938949 0.110395
0.249261 0.938949 0.110395
0.307164 0.938949 0.110395
0.372258 0.938949 0.110395
0.435714 0.938949 0.110395
0.497957 0.938949 0.110395
0.562808 0.938949 0.110395
0.626025 0.938949 0.110395
0.687988 0.938949 0.110395
0.748948 0.938949 0.110395
0.813660 0.938949 0.110395
0.874813 0.938949 0.110395
0.938949 0.938949 0.110395
1.000000 0.938949 0.110395
0.000000 1.000000 0.110395
0.000000 1.000000 0.110395
0.110395 1.000000 0.110395
0.181896 1.000000 0.110395
0.249261 1.000000 0.110395
0.307164 1.000000 0.110395
0.372258 1.000000 0.110395
0.435714 1.000000 0.110395
0.497957 1.000000 0.110395
0.562808 1.000000 0.110395
0.626025 1.000000 0.110395
0.687988 1.000000 0.110395
0.748948 1.000000 0.110395
0.813660 1.000000 0.110395
0.874813 1.000000 0.110395
0.938949 1.000000 0.110395
1.000000 1.000000 0.110395
0.000000 0.000000 0.181896
0.000000 0.000000 0.181896
0.110395 0.000000 0.181896
0.181896 0.000000 0.181896
0.249261 0.000000 0.181896
0.307164 0.000000 0.181896
0.372258 0.000000 0.181896
0.435714 0.000000 0.181896
0.497957 0.000000 0.181896
0.562808 0.000000 0.181896
0.626025 0.000000 0.181896
0.687988 0.000000 0.181896
0.748948 0.000000 0.181896
0.813660 0.000000 0.181896
0.874813 0.000000 0.181896
0.938949 0.000000 0.181896
1.000000 0.000000 0.181896
0.000000 0.000000 0.181896
